suite-common/icons/assets/icons/lockLaminatedOpen.svg

<svg xmlns="http://www.w3.org/2000/svg" viewBox="0 0 32 32">
  <path fill-rule="evenodd" d="M14.723 2.137c-2.063.569-3.507 2.062-3.981 4.117-.072.311-.094.773-.114 2.364l-.024 1.978-2.256.036c-1.241.019-2.33.05-2.419.068-.202.04-.743.469-.873.693-.062.105-.116.36-.149.693-.029.305-.051 3.342-.052 7.197l-.002 6.669.136.273c.159.319.524.674.841.818.217.098.507.101 10.17.101 9.618 0 9.954-.003 10.167-.1.312-.142.644-.458.81-.774l.143-.27.016-6.587c.016-6.835-.005-7.7-.19-8.018-.146-.25-.676-.656-.909-.695-.108-.019-3.362-.05-7.23-.069l-7.032-.035.027-2.058c.017-1.285.05-2.148.089-2.298.097-.38.451-1.06.763-1.467.808-1.052 1.986-1.629 3.326-1.63.995-.001 1.714.227 2.556.809a4.05 4.05 0 0 1 1.546 2.016c.295.854.384.965.771.965.163 0 .447-.239.507-.426.072-.227-.311-1.346-.654-1.912-.475-.784-1.421-1.622-2.328-2.064-.779-.379-1.178-.463-2.298-.485-.841-.016-1.009-.005-1.357.091m11.173 9.78c.073.111.09.416.116 2.053l.031 1.923H5.957l.03-1.921c.025-1.646.042-1.941.116-2.054l.086-.131h19.622zm.131 6.963v1.813H5.973v-3.626h20.054zm-.014 4.914c-.028 1.801-.037 1.937-.134 2.067l-.104.139H6.225l-.105-.141c-.098-.131-.107-.259-.134-2.066l-.029-1.926h20.086z"/>
</svg>

<svg xmlns="http://www.w3.org/2000/svg" viewBox="0 0 32 32"><path d="M14.723 2.137 C 12.660 2.706,11.216 4.199,10.742 6.254 C 10.670 6.565,10.648 7.027,10.628 8.618 L 10.604 10.596 8.348 10.632 C 7.107 10.651,6.018 10.682,5.929 10.700 C 5.727 10.740,5.186 11.169,5.056 11.393 C 4.994 11.498,4.940 11.753,4.907 12.086 C 4.878 12.391,4.856 15.428,4.855 19.283 L 4.853 25.952 4.989 26.225 C 5.148 26.544,5.513 26.899,5.830 27.043 C 6.047 27.141,6.337 27.144,16.000 27.144 C 25.618 27.144,25.954 27.141,26.167 27.044 C 26.479 26.902,26.811 26.586,26.977 26.270 L 27.120 26.000 27.136 19.413 C 27.152 12.578,27.131 11.713,26.946 11.395 C 26.800 11.145,26.270 10.739,26.037 10.700 C 25.929 10.681,22.675 10.650,18.807 10.631 L 11.775 10.596 11.802 8.538 C 11.819 7.253,11.852 6.390,11.891 6.240 C 11.988 5.860,12.342 5.180,12.654 4.773 C 13.462 3.721,14.640 3.144,15.980 3.143 C 16.975 3.142,17.694 3.370,18.536 3.952 C 19.268 4.458,19.799 5.151,20.082 5.968 C 20.377 6.822,20.466 6.933,20.853 6.933 C 21.016 6.933,21.300 6.694,21.360 6.507 C 21.432 6.280,21.049 5.161,20.706 4.595 C 20.231 3.811,19.285 2.973,18.378 2.531 C 17.599 2.152,17.200 2.068,16.080 2.046 C 15.239 2.030,15.071 2.041,14.723 2.137 M25.896 11.917 C 25.969 12.028,25.986 12.333,26.012 13.970 L 26.043 15.893 16.000 15.893 L 5.957 15.893 5.987 13.972 C 6.012 12.326,6.029 12.031,6.103 11.918 L 6.189 11.787 16.000 11.787 L 25.811 11.787 25.896 11.917 M26.027 18.880 L 26.027 20.693 16.000 20.693 L 5.973 20.693 5.973 18.880 L 5.973 17.067 16.000 17.067 L 26.027 17.067 26.027 18.880 M26.013 23.794 C 25.985 25.595,25.976 25.731,25.879 25.861 L 25.775 26.000 16.000 26.000 L 6.225 26.000 6.120 25.859 C 6.022 25.728,6.013 25.600,5.986 23.793 L 5.957 21.867 16.000 21.867 L 26.043 21.867 26.013 23.794 " stroke="none" fill-rule="evenodd" fill="black"></path></svg>
